!!!!SEGMENT: pl-wru--50044-muz--001_buchner-philipp-friedrich--plectrum-musicum-sonata-i.krn
!!!cenid: 16xx:1802
!!!COM: Buchner, Philipp Friedrich
!!!COM-rismID: pe30013776
!!!CDT:
!!!CNT:
!!!GTL: Plectrum musicum
!!!OTL: Sonata I
!!!OMV: 001
!!!PDT: 1662
!!!AGN:
!!!SMS-siglum: PL-WRu
!!!SMS-shelfmark: 50044 Muz.
!!!SMS-shelfwork: 001-001 G
!!!SMS-variant:
!!!SMS-altvar:
!!!NIFC-rismSourceID: 990007465
!!!NIFC-rismChildID: 990007465
!!!NIFC-islandoraID: none
!!!URL-pdf-islandora:
!!!URL-scan: https://www.bibliotekacyfrowa.pl/dlibra/doccontent?id=116 @EN{Scan on Digital Library of University of Wroclaw} @PL{Skany w portalu Biblioteka Cyfrowa Uniwersytetu Wrocławskiego}
!!!ONB-nifc: UWAGA: Violino I: s. 3-4, Violino II: s. 22-23, Bassus: s. 66, Bassus continuus: s. 81
!!!AIN: 2 violn
!!!key: a
**kern	**fba	**kern	**fba	**kern	**kern
*part4	*part4	*part3	*part3	*part2	*part1
*staff4	*	*staff3	*	*staff2	*staff1
*I"BASSUS CONTINUUS.	*	*I"BASSUS	*	*I"VIOLINO II.	*I"VIOLINO I.
*I'bc	*	*I'b	*	*I'vl II	*I'vl I
*	*	*	*	*ICstr	*ICstr
*	*	*	*	*Ivioln	*Ivioln
*IGcont	*	*IGcont	*	*	*
*clefF4	*	*clefF4	*	*clefG2	*clefG2
*k[]	*	*k[]	*	*k[]	*k[]
*a:	*	*a:	*	*a:	*a:
*M2/2	*	*M2/2	*	*M2/2	*M2/2
*met(C|)	*	*met(C|)	*	*met(C|)	*met(C|)
=1-	=1-	=1-	=1-	=1-	=1-
!	!	!	!	!	!LO:TX:a:t=Sonata I.
!LO:TX:b:t=Adagio.	!	!LO:TX:b:t=Adagio.	!	!	!LO:TX:b:t=Adagio.
2.AA/	4 3	2.AA/	4 3	4r	4.ee\
.	.	.	.	4.cc\	.
.	.	.	.	.	16ff\
.	.	.	.	.	16ee\
.	.	.	.	.	4.dd\
.	.	.	.	16dd\	.
.	.	.	.	16cc\	.
!	!	!	!	!LO:TX:t=P:problem:kreska pseudotaktowa	!
4GG#X/	5	4GG#X/	5	4.b/	.
.	.	.	.	.	16ee\
!	!	!	!	!	!LO:TX:t=P:problem:kreska pseudotaktowa
.	.	.	.	.	16dd\
=2-	=2-	=2-	=2-	=2-	=2-
[2AA/	9:8	[2AA/	9:8	.	1cc
.	.	.	.	16cc\	.
.	.	.	.	16b/	.
.	.	.	.	2a/	.
!LO:TX:t=P:problem:kreska pseudotaktowa	!	!LO:TX:t=P:problem:kreska pseudotaktowa	!	!	!
2AA/]	-	2AA/]	-	.	.
.	.	.	.	8r	.
!	!	!	!	!LO:TX:t=P:problem:kreska pseudotaktowa	!
.	.	.	.	8aa\	.
=3-	=3-	=3-	=3-	=3-	=3-
[1AA	-	[1AA	-	8gg\	8r
.	.	.	.	8ff\	8gg\
.	.	.	.	8ee\	8ff\
!	!	!	!	!	!LO:TX:t=P:problem:kreska pseudotaktowa
.	.	.	.	8dd\	8ee\
.	.	.	.	4.cc\	8ee\
.	.	.	.	.	8dd\
.	.	.	.	.	4.cc\
!	!	!	!	!LO:TX:t=P:problem:kreska pseudotaktowa	!
.	.	.	.	8ff\	.
=4-	=4-	=4-	=4-	=4-	=4-
1AA_	.	1AA_	.	8ee\	.
.	.	.	.	8dd\	8ff\
.	.	.	.	8cc\	8ee\
!	!	!	!	!	!LO:TX:t=P:problem:kreska pseudotaktowa
.	.	.	.	8b/	8dd\
.	.	.	.	4.a/	8cc/
.	.	.	.	.	8b/
.	.	.	.	.	4.a/
!	!	!	!	!LO:TX:t=P:problem:kreska pseudotaktowa	!
.	.	.	.	8e/	.
=5-	=5-	=5-	=5-	=5-	=5-
1AA_	.	1AA_	.	8f/	.
.	.	.	.	8g/	8e/
.	.	.	.	8a/	8f/
!	!	!	!	!	!LO:TX:t=P:problem:kreska pseudotaktowa
.	.	.	.	8b/	8g/
.	.	.	.	8cc\	8a/
.	.	.	.	8dd\	8b/
!	!	!	!	!LO:TX:t=P:problem:kreska pseudotaktowa	!
.	.	.	.	4.ee\	8cc\
.	.	.	.	.	8dd\
=6-	=6-	=6-	=6-	=6-	=6-
1AA_	.	1AA_	.	.	4.ee\
.	.	.	.	16ff\	.
.	.	.	.	16gg\	.
.	.	.	.	8.aa\	.
.	.	.	.	.	16ff\
!	!	!	!	!	!LO:TX:t=P:problem:kreska pseudotaktowa
.	.	.	.	16ee\	16gg\
*	*	*	*	*custos:cc	*
!	!	!	!	!LO:LB:g=original	!
.	.	.	.	8cc\	8.aa\
.	.	.	.	8a/	.
.	.	.	.	.	16ee\
.	.	.	.	8.e/	8cc/
.	.	.	.	.	8a/
!	!	!	!	!LO:TX:t=P:problem:kreska pseudotaktowa	!
.	.	.	.	16d/	.
*	*	*	*	*	*custos:e
!	!	!	!	!	!LO:LB:g=original
=7-	=7-	=7-	=7-	=7-	=7-
!LO:TX:t=P:problem:kreska pseudotaktowa	!	!LO:TX:t=P:problem:kreska pseudotaktowa	!	!	!
1AA]	.	1AA]	.	4B/	8.e/
.	.	.	.	.	16c/
.	.	.	.	8r	4A/
.	.	.	.	8e/	.
.	.	.	.	8a/	8r
.	.	.	.	8b/	8e/
.	.	.	.	8cc\	8a/
!	!	!	!	!LO:TX:t=P:problem:kreska pseudotaktowa	!
.	.	.	.	8dd\	8b/
=8-	=8-	=8-	=8-	=8-	=8-
2EE/	#	2EE/	#	16ee\	8cc\
.	.	.	.	16cc\	.
.	.	.	.	16b/	8dd\
.	.	.	.	16a/	.
.	.	.	.	4g#X/	16ee\
.	.	.	.	.	16cc\
.	.	.	.	.	16b/
!	!	!	!	!	!LO:TX:t=P:problem:kreska pseudotaktowa
.	.	.	.	.	16a/
2FF/	.	2FF/	.	8.a/	4g#X/
.	.	.	.	16g#X/	.
.	.	.	.	8.a/	4r
!	!	!	!	!LO:TX:t=P:problem:kreska pseudotaktowa	!
.	.	.	.	16g#X/	.
=9-	=9-	=9-	=9-	=9-	=9-
2DD/	8 6#r	2DD/	8 6#r	8.b/	8.cc/
.	.	.	.	16a/	16b/
.	.	.	.	8.b/	8.cc/
!	!	!	!	!	!LO:TX:t=P:problem:kreska pseudotaktowa
.	.	.	.	16a/	16b/
2EE/	6:5 4#r	2EE/	6:5 4#r	8g#X/	8.dd\
.	.	.	.	4a/	.
.	.	.	.	.	16cc\
.	.	.	.	.	8.dd\
.	.	.	.	8g#X/	.
.	.	.	.	.	16cc\
=10-	=10-	=10-	=10-	=10-	=10-
!LO:TX:t=P:problem:kreska pseudotaktowa	!	!LO:TX:t=P:problem:kreska pseudotaktowa	!	!	!
1AA	.	1AA	.	1a	8.cc/
.	.	.	.	.	16b/
.	.	.	.	.	8.cc/
!	!	!	!	!	!LO:TX:t=P:problem:kreska pseudotaktowa
.	.	.	.	.	16b/
!	!	!	!	!	!LO:TX:t=P:problem:celowo zmieniłem rytm, tu był błąd
.	.	.	.	.	2a/
=11-	=11-	=11-	=11-	=11-	=11-
!LO:TX:b:t=Allegro.	!	!LO:TX:b:t=Allegro.	!	!	!
1AA	6	1AA	6	00r	4r
.	.	.	.	.	16a/
.	.	.	.	.	16b/
.	.	.	.	.	16cc\
.	.	.	.	.	16dd\
*	*	*	*	*	*custos:ee
!	!	!	!	!	!LO:LB:g=original
.	.	.	.	.	8ee\
.	.	.	.	.	16cc/
.	.	.	.	.	16b/
.	.	.	.	.	8a/
!	!	!	!	!	!LO:TX:t=P:problem:kreska pseudotaktowa
.	.	.	.	.	8aa\
=12-	=12-	=12-	=12-	=12-	=12-
4BB/	.	4BB/	.	.	8.gg\
.	.	.	.	.	16ff\
8C/	.	8C/	.	.	8ee\
8E\	.	8E\	.	.	8gg\
4F\	.	4F\	.	.	8aa\
.	.	.	.	.	8ff\
!LO:TX:t=P:problem:kreska pseudotaktowa	!	!LO:TX:t=P:problem:kreska pseudotaktowa	!	!	!
4E\	.	4E\	.	.	8.gg\
.	.	.	.	.	32ff\
!	!	!	!	!	!LO:TX:t=P:problem:kreska pseudotaktowa
.	.	.	.	.	32ee\
=13-	=13-	=13-	=13-	=13-	=13-
4D/	.	4D/	.	.	8ff\
.	.	.	.	.	8dd\
4C/	.	4C/	.	.	8.ee\
.	.	.	.	.	32dd\
.	.	.	.	.	32cc\
4G\	.	4G\	.	.	16dd\
.	.	.	.	.	16b/
.	.	.	.	.	16gny/
.	.	.	.	.	16dd\
4E\	.	4E\	.	.	8ee\
!	!	!	!	!	!LO:TX:t=P:problem:kreska pseudotaktowa
.	.	.	.	.	8ee\
*custos:F	*	*custos:F	*	*	*
!LO:LB:g=original	!	!LO:LB:g=original	!	!	!
=14-	=14-	=14-	=14-	=14-	=14-
4F\	.	4F\	.	.	16cc\
.	.	.	.	.	16a/
.	.	.	.	.	16f/
.	.	.	.	.	16cc\
4D/	.	4D/	.	.	8dd\
.	.	.	.	.	8dd\
4E\	5	4E\	5	.	16b/
.	.	.	.	.	16g/
.	.	.	.	.	16e/
.	.	.	.	.	16b\
4C/	.	4C/	.	.	8cc\
!	!	!	!	!	!LO:TX:t=P:problem:kreska pseudotaktowa
.	.	.	.	.	8cc\
*	*	*	*	*	*custos:a
!	!	!	!	!	!LO:LB:g=original
=15-	=15-	=15-	=15-	=15-	=15-
4D/	.	4D/	.	1r	8a/
.	.	.	.	.	4f/
4AA/	6:5	4AA/	6:5	.	.
.	.	.	.	.	8e/
4D/	.	4D/	.	.	8d/
.	.	.	.	.	4dd\
!LO:TX:t=P:problem:kreska pseudotaktowa	!	!LO:TX:t=P:problem:kreska pseudotaktowa	!	!	!
4AA/	4:3	4AA/	4:3	.	.
.	.	.	.	.	8cc\
=16-	=16-	=16-	=16-	=16-	=16-
2E\	4#r	2E\	4#r	2r	2b/
[>2AA/	.	[>2AA/	.	4r	2a/
!	!	!	!	!LO:TX:b:t=allegro.	!
.	.	.	.	16a/	.
.	.	.	.	16b/	.
.	.	.	.	16cc\	.
.	.	.	.	16dd\	.
*	*	*	*	*custos:ee	*
!	!	!	!	!LO:LB:g=original	!
=17-	=17-	=17-	=17-	=17-	=17-
2AA/]	.	2AA/]	.	8ee\	00r
.	.	.	.	16cc\	.
.	.	.	.	16b/	.
.	.	.	.	8a/	.
.	.	.	.	8aa\	.
!LO:TX:t=P:problem:kreska pseudotaktowa	!	!LO:TX:t=P:problem:kreska pseudotaktowa	!	!	!
2E\	.	2E\	.	8.gg\	.
.	.	.	.	16ff\	.
.	.	.	.	8ee\	.
!	!	!	!	!LO:TX:t=P:problem:kreska pseudotaktowa	!
.	.	.	.	8ff\	.
=18-	=18-	=18-	=18-	=18-	=18-
4F\	.	4F\	.	8aa\	.
.	.	.	.	8ff\	.
4E\	.	4E\	.	8.gg\	.
.	.	.	.	32ff\	.
.	.	.	.	32ee\	.
4D/	.	4D/	.	8ff\	.
.	.	.	.	8dd\	.
!LO:TX:t=P:problem:kreska pseudotaktowa	!	!LO:TX:t=P:problem:kreska pseudotaktowa	!	!	!
4C/	.	4C/	.	8.ee\	.
.	.	.	.	32dd\	.
!	!	!	!	!LO:TX:t=P:problem:kreska pseudotaktowa	!
.	.	.	.	32cc\	.
=19-	=19-	=19-	=19-	=19-	=19-
4G\	.	4G\	.	16dd\	.
.	.	.	.	16b/	.
.	.	.	.	16gny/	.
.	.	.	.	16dd\	.
4E\	.	4E\	.	8ee\	.
.	.	.	.	8ee\	.
4F\	.	4F\	.	16cc\	.
.	.	.	.	16a/	.
.	.	.	.	16f/	.
.	.	.	.	16cc\	.
4D/	.	4D/	.	8dd\	.
!	!	!	!	!LO:TX:t=P:problem:kreska pseudotaktowa	!
.	.	.	.	8dd\	.
=20-	=20-	=20-	=20-	=20-	=20-
4E\	.	4E\	.	16b/	.
.	.	.	.	16g/	.
.	.	.	.	16e/	.
.	.	.	.	16b/	.
4C/	.	4C/	.	8cc\	.
.	.	.	.	8cc\	.
4D/	.	4D/	.	8a/	.
.	.	.	.	4f/	.
!LO:TX:t=P:problem:kreska pseudotaktowa	!	!LO:TX:t=P:problem:kreska pseudotaktowa	!	!	!
4AA/	6:5	4AA/	6:5	.	.
.	.	.	.	8e/	.
*	*	*	*	*custos:d	*
!	!	!	!	!LO:LB:g=original	!
=21-	=21-	=21-	=21-	=21-	=21-
4D/	.	4D/	.	8d/	1r
.	.	.	.	4ff\	.
4E\	9:8	4E\	9:8	.	.
.	.	.	.	8ee\	.
!	!	!	!	!LO:TX:t=P:problem:kreska pseudotaktowa	!
4F\	6 5	4F\	6 5	2dd\	.
4G\	.	4G\	.	.	.
*custos:C	*	*custos:C	*	*	*
!LO:LB:g=original	!	!LO:LB:g=original	!	!	!
=22-	=22-	=22-	=22-	=22-	=22-
1C	.	1C	.	2cc\	4r
.	.	.	.	.	16cc\
.	.	.	.	.	16dd\
.	.	.	.	.	16ee\
.	.	.	.	.	16ff\
.	.	.	.	16cc\	8gg\
.	.	.	.	16dd\	.
.	.	.	.	16ee\	16ee\
.	.	.	.	16ff\	16dd\
.	.	.	.	8gg\	8cc\
!	!	!	!	!	!LO:TX:t=P:problem:kreska pseudotaktowa
.	.	.	.	16ee\	8gg\
!	!	!	!	!LO:TX:t=P:problem:kreska pseudotaktowa	!
.	.	.	.	16dd\	.
=23-	=23-	=23-	=23-	=23-	=23-
4E\	6	4E\	6	8cc\	8.ee\
.	.	.	.	8ccc\	.
.	.	.	.	.	16ee\
4G\	.	4G\	.	8.bb\	4dd\
.	.	.	.	16aa\	.
!LO:TX:t=P:problem:kreska pseudotaktowa	!	!LO:TX:t=P:problem:kreska pseudotaktowa	!	!	!
2G\	.	2G\	.	4gg\	4r
!	!	!	!	!LO:TX:t=P:problem:kreska pseudotaktowa	!
.	.	.	.	4r	16g/
.	.	.	.	.	16a/
.	.	.	.	.	16b/
!	!	!	!	!	!LO:TX:t=P:problem:kreska pseudotaktowa
.	.	.	.	.	16cc/
=24-	=24-	=24-	=24-	=24-	=24-
4GGny/	.	4GGny/	.	16g/	8dd\
.	.	.	.	16a/	.
.	.	.	.	16b/	16b/
.	.	.	.	16cc\	16a/
4BB/	.	4BB/	.	8dd\	8g/
.	.	.	.	16b/	8gg\
.	.	.	.	16a/	.
4C/	.	4C/	.	8g/	8.ee\
.	.	.	.	8gg\	.
.	.	.	.	.	16dd\
!	!	!	!	!	!LO:TX:t=P:problem:kreska pseudotaktowa
4E\	.	4E\	.	8.ee\	4cc\
!	!	!	!	!LO:TX:t=P:problem:kreska pseudotaktowa	!
.	.	.	.	16dd\	.
=25-	=25-	=25-	=25-	=25-	=25-
4F\	6	4F\	6	4cc\	8r
.	.	.	.	.	16aa\
.	.	.	.	.	16ff\
4E\	.	4E\	.	4r	8.gg\
.	.	.	.	.	32ff\
.	.	.	.	.	32ee\
*	*	*	*	*	*custos:ff
!	!	!	!	!	!LO:LB:g=original
4D/	.	4D/	.	8r	4ff\
.	.	.	.	16dd\	.
.	.	.	.	16b\	.
!LO:TX:t=P:problem:kreska pseudotaktowa	!	!LO:TX:t=P:problem:kreska pseudotaktowa	!	!	!LO:TX:t=P:problem:kreska pseudotaktowa
4C/	.	4C/	.	8.ee\	4r
.	.	.	.	32dd\	.
!	!	!	!	!LO:TX:t=P:problem:kreska pseudotaktowa	!
.	.	.	.	32cc\	.
*	*	*	*	*custos:dd	*
!	!	!	!	!LO:LB:g=original	!
=26-	=26-	=26-	=26-	=26-	=26-
4G\	.	4G\	.	16dd\	4r
.	.	.	.	16b/	.
.	.	.	.	16g/	.
.	.	.	.	16dd\	.
4E\	.	4E\	.	8ee\	16gg\
.	.	.	.	.	16ee\
.	.	.	.	8ee\	16cc\
.	.	.	.	.	16gg\
4F\	.	4F\	.	16cc\	8aa\
.	.	.	.	16a/	.
.	.	.	.	16f/	8aa\
.	.	.	.	16cc\	.
4D/	.	4D/	.	8dd\	16ff\
.	.	.	.	.	16dd\
!	!	!	!	!LO:TX:t=P:problem:kreska pseudotaktowa	!
.	.	.	.	8dd\	16b/
!	!	!	!	!	!LO:TX:t=P:problem:kreska pseudotaktowa
.	.	.	.	.	16ff\
=27-	=27-	=27-	=27-	=27-	=27-
4E\	-	4E\	-	16b/	8gg\
.	.	.	.	16g/	.
.	.	.	.	16e/	8gg\
.	.	.	.	16b/	.
4AA/	.	4AA/	.	8cc\	16ee\
.	.	.	.	.	16cc\
.	.	.	.	8cc\	16a/
.	.	.	.	.	16cc/
4C/	.	4C/	.	8r	8ee\
.	.	.	.	4cc\	8ee\
!LO:TX:t=P:problem:kreska pseudotaktowa	!	!LO:TX:t=P:problem:kreska pseudotaktowa	!	!	!
4GG/	4:3	4GG/	4:3	.	8r
!	!	!	!	!LO:TX:t=P:problem:kreska pseudotaktowa	!
.	.	.	.	8b/	4gg\
=28-	=28-	=28-	=28-	=28-	=28-
4D/	4:3	4D/	4:3	8a/	.
.	.	.	.	4dd\	8ff\J
4AA/	4:3	4AA/	4:3	.	8ee\
.	.	.	.	8cc\	4aa\
4E\	4:3	4E\	4:3	8b/	.
.	.	.	.	4ee\	8gg\
4BB/	4#r	4BB/	4#r	.	4ff#X\
!	!	!	!	!LO:TX:t=P:problem:kreska pseudotaktowa	!
.	.	.	.	8dd#X\	.
=29-	=29-	=29-	=29-	=29-	=29-
4EE/	.	4EE/	.	8ee\	4ee\
.	.	.	.	8b/	.
4AA/	.	4AA/	.	8cc\	4r
.	.	.	.	8a/	.
4GG/	.	4GG/	.	8b/	8r
.	.	.	.	8g/	8dd\
!LO:TX:t=P:problem:kreska pseudotaktowa	!	!LO:TX:t=P:problem:kreska pseudotaktowa	!	!	!
4C/	.	4C/	.	4r	8ee\
!	!	!	!	!	!LO:TX:t=P:problem:kreska pseudotaktowa
.	.	.	.	.	8cc\
*	*	*	*	*custos:dd	*
!	!	!	!	!LO:LB:g=original	!
=30-	=30-	=30-	=30-	=30-	=30-
8GG/	.	8GG/	.	8r	8.dd\
8G\	6	8G\	6	8ddny\	.
.	.	.	.	.	32cc/
.	.	.	.	.	32b/
8E\	.	8E\	.	8ee\	8cc/
8F\	.	8F\	.	8cc\	8a/
*	*	*	*	*	*custos:b
!	!	!	!	!	!LO:LB:g=original
8D/	.	8D/	.	8.dd\	8b/
8E\	.	8E\	.	.	8g/
.	.	.	.	32cc\	.
.	.	.	.	32b/	.
8C/	6 5	8C/	6 5	8cc\	4r
!	!	!	!	!LO:TX:t=P:problem:kreska pseudotaktowa	!
8D/	#	8D/	#	8a/	.
*custos:GG	*	*custos:GG	*	*	*
!LO:LB:g=original	!	!LO:LB:g=original	!	!	!
=31-	=31-	=31-	=31-	=31-	=31-
8GG/	.	8GG/	.	4b/	16dd\
.	.	.	.	.	16b/
8G\	.	8G\	.	.	16g/
.	.	.	.	.	16dd\
4E\	.	4E\	.	16gg\	8ee\
.	.	.	.	16ee\	.
.	.	.	.	16cc\	8ee\
.	.	.	.	16gg\	.
4F\	.	4F\	.	8aa\	16cc\
.	.	.	.	.	16a/
.	.	.	.	8aa\	16f/
.	.	.	.	.	16cc\
4D/	.	4D/	.	16ff\	8dd\
.	.	.	.	16dd\	.
!	!	!	!	!	!LO:TX:t=P:problem:kreska pseudotaktowa
.	.	.	.	16b/	8dd\
!	!	!	!	!LO:TX:t=P:problem:kreska pseudotaktowa	!
.	.	.	.	16ff\	.
=32-	=32-	=32-	=32-	=32-	=32-
2E\	.	2E\	.	8gg\	4r
.	.	.	.	8gg\	.
.	.	.	.	4r	16g/
.	.	.	.	.	16a/
.	.	.	.	.	16b/
.	.	.	.	.	16cc/
!LO:TX:t=P:problem:kreska pseudotaktowa	!	!LO:TX:t=P:problem:kreska pseudotaktowa	!	!	!
2BB/	6	2BB/	6	2r	8dd\
.	.	.	.	.	16b/
.	.	.	.	.	16a/
.	.	.	.	.	8g/
!	!	!	!	!	!LO:TX:t=P:problem:kreska pseudotaktowa
.	.	.	.	.	8gg\
=33-	=33-	=33-	=33-	=33-	=33-
4C/	.	4C/	.	2r	8.ee\
.	.	.	.	.	16dd\
4E\	6	4E\	6	.	8cc\
.	.	.	.	.	8gg\
4F\	.	4F\	.	4r	8aa\
.	.	.	.	.	8ffny\
4E\	.	4E\	.	16g/	8.gg\
.	.	.	.	16a/	.
.	.	.	.	16b/	.
!	!	!	!	!LO:TX:t=P:problem:kreska pseudotaktowa	!
.	.	.	.	16cc\	32ff\
!	!	!	!	!	!LO:TX:t=P:problem:kreska pseudotaktowa
.	.	.	.	.	32ee\
=34-	=34-	=34-	=34-	=34-	=34-
8D/	.	8D/	.	8dd\	8ff\
8G\	.	8G\	.	16b/	8dd\
.	.	.	.	16a/	.
4E\	6	4E\	6	8g/	8ee\
.	.	.	.	8gg\	8cc\
!	!	!	!	!	!LO:TX:t=P:problem:kreska pseudotaktowa
!LO:TX:t=P:problem:kreska pseudotaktowa	!	!LO:TX:t=P:problem:kreska pseudotaktowa	!	!	!
2C/	.	2C/	.	8.ee\	2r
.	.	.	.	16dd\	.
.	.	.	.	8cc\	.
!	!	!	!	!LO:TX:t=P:problem:kreska pseudotaktowa	!
.	.	.	.	8cc\	.
*	*	*	*	*custos:dd	*custos:cc
!	!	!	!	!LO:LB:g=original	!LO:LB:g=original
=35-	=35-	=35-	=35-	=35-	=35-
4BB/	.	4BB/	.	8dd\	4r
.	.	.	.	8b/	.
4AA/	.	4AA/	.	8.cc\	16cc\
.	.	.	.	.	16dd\
.	.	.	.	.	16ee\
.	.	.	.	32b/	16ff\
.	.	.	.	32a/	.
8GG/	.	8GG/	.	8b/	8gg\
8C/	.	8C/	.	8g/	16ee\
.	.	.	.	.	16dd\
!LO:TX:t=P:problem:kreska pseudotaktowa	!	!LO:TX:t=P:problem:kreska pseudotaktowa	!	!	!
4C/	.	4C/	.	4r	8cc/
!	!	!	!	!	!LO:TX:t=P:problem:kreska pseudotaktowa
.	.	.	.	.	8ccc\
=36-	=36-	=36-	=36-	=36-	=36-
2GG/	.	2GG/	.	4r	8.bb\
.	.	.	.	.	16aa\
.	.	.	.	16dd\	4gg\
.	.	.	.	16b\	.
.	.	.	.	16g/	.
.	.	.	.	16dd\	.
8C/	.	8C/	.	8ee\	16gg\
.	.	.	.	.	16ee\
8E\	.	8E\	.	8ee\	16cc\
.	.	.	.	.	16gg\
!LO:TX:t=P:problem:kreska pseudotaktowa	!	!LO:TX:t=P:problem:kreska pseudotaktowa	!	!	!
4F\	.	4F\	.	8r	8aa\
!	!	!	!	!	!LO:TX:t=P:problem:kreska pseudotaktowa
.	.	.	.	4cc\	8aa\
=37-	=37-	=37-	=37-	=37-	=37-
4G\	4:3	4G\	4:3	.	4r
.	.	.	.	8b/	.
4D/	.	4D/	.	8a/	16aa\
.	.	.	.	.	16ff\
.	.	.	.	4dd\	16dd\
.	.	.	.	.	16ff\
4AA/	4:3	4AA/	4:3	.	8ee\
.	.	.	.	8cc\	8ee\
!LO:TX:t=P:problem:kreska pseudotaktowa	!	!LO:TX:t=P:problem:kreska pseudotaktowa	!	!LO:TX:t=P:problem:kreska pseudotaktowa	!LO:TX:t=P:problem:kreska pseudotaktowa
4E\	4:3	4E\	4:3	4b/	4r
=38-	=38-	=38-	=38-	=38-	=38-
4AA/	.	4AA/	.	4a/	16ee\
.	.	.	.	.	16cc\
.	.	.	.	.	16a/
.	.	.	.	.	16ee\
4D/	.	4D/	.	4r	8ff\
.	.	.	.	.	8ff\
4GG/	.	4GG/	.	4r	16dd\
.	.	.	.	.	16b/
.	.	.	.	.	16g/
.	.	.	.	.	16dd\
4C/	.	4C/	.	16gg\	8ee\
.	.	.	.	16ee\	.
!	!	!	!	!	!LO:TX:t=P:problem:kreska pseudotaktowa
.	.	.	.	16cc\	8ee\
!	!	!	!	!LO:TX:t=P:problem:kreska pseudotaktowa	!
.	.	.	.	16gg\	.
*	*	*	*	*	*custos:cc
!	!	!	!	!	!LO:LB:g=original
=39-	=39-	=39-	=39-	=39-	=39-
4FF/	.	4FF/	.	8gg\	16cc\
.	.	.	.	.	16a/
.	.	.	.	8gg\	16f/
.	.	.	.	.	16cc\
4BB-X/	.	4BB-X/	.	16ff\	8dd\
.	.	.	.	16dd\	.
.	.	.	.	16b-X/	8dd\
.	.	.	.	16ff\	.
*	*	*	*	*custos:gg	*
!	!	!	!	!LO:LB:g=original	!
4GG/	.	4GG/	.	8gg\	8r
.	.	.	.	8gg\	16dd\
.	.	.	.	.	16b/
!	!	!L	!	!	!LO:TX:t=P:problem:kreska pseudotaktowa
4C/	.	4C/	.	8r	4ee\
.	.	.	.	16gg\	.
!	!	!	!	!LO:TX:t=P:problem:kreska pseudotaktowa	!
.	.	.	.	16ee\	.
*custos:F	*	*custos:F	*	*	*
!LO:LB:g=original	!	!LO:LB:g=original	!	!	!
=40-	=40-	=40-	=40-	=40-	=40-
4F\	.	4F\	.	4gg\	8r
.	.	.	.	.	4ff\
4C/	4:3	4C/	4:3	8r	.
.	.	.	.	4cc\	8ee\
4G\	4:3	4G\	4:3	.	8dd\
.	.	.	.	8bny/	4gg\
4D/	4:3	4D/	4:3	8a/	.
!	!	!	!	!	!LO:TX:t=P:problem:kreska pseudotaktowa
.	.	.	.	4dd\	8ff\
=41-	=41-	=41-	=41-	=41-	=41-
4A\	4#r	4A\	4#r	.	4ee\
.	.	.	.	8cc#X\	.
4D/	#	4D/	#	4dd\	8dd\
.	.	.	.	.	16aa\
.	.	.	.	.	16ff#X\
4BBny/	.	4BBny/	.	8r	8bb\
.	.	.	.	16dd\	8gg\
.	.	.	.	16b/	.
!LO:TX:t=P:problem:kreska pseudotaktowa	!	!LO:TX:t=P:problem:kreska pseudotaktowa	!	!	!
4C/	.	4C/	.	8ee\	4r
!	!	!	!	!LO:TX:t=P:problem:kreska pseudotaktowa	!
.	.	.	.	8cc#\	.
=42-	=42-	=42-	=42-	=42-	=42-
8GG/	.	8GG/	.	8.dd\	8r
8G\	.	8G\	.	.	8dd\
.	.	.	.	32ccny\	.
.	.	.	.	32b/	.
8E\	.	8E\	.	8cc\	8ee\
8F\	.	8F\	.	8a/	8cc\
8D/	.	8D/	.	8b/	8.dd\
8E\	.	8E\	.	8g/	.
.	.	.	.	.	32cc/
.	.	.	.	.	32b/
!	!	!	!	!LO:TX:t=P:problem:kreska pseudotaktowa	!
8C/	6 5	8C/	6 5	4r	8cc/
!LO:TX:t=P:problem:kreska pseudotaktowa	!	!LO:TX:t=P:problem:kreska pseudotaktowa	!	!	!LO:TX:t=P:problem:kreska pseudotaktowa
8D/	#	8D/	#	.	8a/
=43-	=43-	=43-	=43-	=43-	=43-
8GG/	.	8GG/	.	8r	8b\
8E\	.	8E\	.	8gg\	8g/
8F\	.	8F\	.	8aa\	4r
8D/	.	8D/	.	8ff\	.
8C/	.	8C/	.	8.gg\	8r
8c\	.	8c\	.	.	8gg\
.	.	.	.	32ff\	.
.	.	.	.	32ee\	.
8A\	.	8A\	.	8ff\	8aa\
!	!	!	!	!	!LO:TX:t=P:problem:kreska pseudotaktowa
!LO:TX:t=P:problem:kreska pseudotaktowa	!	!LO:TX:t=P:problem:kreska pseudotaktowa	!	!	!
8B-X\	.	8B-X\	.	8dd\	8ffny\
*	*	*	*	*custos:ee	*custos:gg
!	!	!	!	!LO:LB:g=original	!LO:LB:g=original
=44-	=44-	=44-	=44-	=44-	=44-
8G\	.	8G\	.	8ee\	8.gg\
8A\	.	8A\	.	8cc\	.
.	.	.	.	.	32ff\
.	.	.	.	.	32ee\
8F\	6 5	8F\	6 5	4r	8ff\
8G\	.	8G\	.	.	8dd\
4C/	.	4C/	.	8r	8ee\
.	.	.	.	8ee\	8cc\
!	!	!	!	!	!LO:TX:t=P:problem:kreska pseudotaktowa
4D/	-	4D/	-	8ff\	4r
.	.	.	.	8dd\	.
=45-	=45-	=45-	=45-	=45-	=45-
4A\	.	4A\	.	8.ee\	8r
.	.	.	.	.	8ee\
.	.	.	.	32dd\	.
.	.	.	.	32cc\	.
8F\	6	8F\	6	8dd\	8ff\
8G\	.	8G\	.	8b/	8dd\
8E\	6	8E\	6	8cc\	8.ee\
8F\	.	8F\	.	8a/	.
.	.	.	.	.	32dd\
.	.	.	.	.	32cc\
!	!	!	!	!LO:TX:t=P:problem:kreska pseudotaktowa	!
8D/	6 5	8D/	6 5	4r	8dd\
!	!	!	!	!	!LO:TX:t=P:problem:kreska pseudotaktowa
8E\	#	8E\	#	.	8b/
*custos:AA	*	*custos:AA	*	*	*
!LO:LB:g=original	!	!LO:LB:g=original	!	!	!
=46-	=46-	=46-	=46-	=46-	=46-
4AA/	.	4AA/	.	8r	8cc/
.	.	.	.	4cc\	8a/
4E\	6 5	4E\	6 5	.	4r
.	.	.	.	8b/	.
4F\	.	4F\	.	8a/	8r
.	.	.	.	4aa\	4ff\
4C/	6:5 4:3	4C/	6:5 4:3	.	.
!	!	!	!	!LO:TX:t=P:problem:kreska pseudotaktowa	!LO:TX:t=P:problem:kreska pseudotaktowa
.	.	.	.	8gg\	8ee\
=47-	=47-	=47-	=47-	=47-	=47-
1D	.	1D	.	8ff\	8dd\
.	.	.	.	4ff\	4aa\
.	.	.	.	8ee\	8gg\
.	.	.	.	8dd\	8ff\
.	.	.	.	4b/	4dd\
!	!	!	!	!LO:TX:t=P:problem:kreska pseudotaktowa	!LO:TX:t=P:problem:kreska pseudotaktowa
.	.	.	.	8a/	8cc\
=48-	=48-	=48-	=48-	=48-	=48-
[<2E\	5:6:5	[<2E\	5:6:5	8g#X/	8b/
.	.	.	.	4cc\	4ee\
!	!	!	!	!	!LO:TX:b:t=A
.	.	.	.	8b/	8dd\
2E\]	6:5 #:4#r	2E\]	6:5 #:4#r	8a/	8cc\
.	.	.	.	4a/	4cc\
.	.	.	.	8g#X/	8b/
=49-	=49-	=49-	=49-	=49-	=49-
1AA	.	1AA	.	1a	1a
*	*	*	*	*custos:a	*
!	!	!	!	!LO:LB:g=original	!
=50-	=50-	=50-	=50-	=50-	=50-
*M3/2	*	*M3/2	*	*M3/2	*M3/2
!LO:TX:b:t=allegro.	!	!LO:TX:b:t=allegro.	!	!LO:TX:b:t=Allegro.	!
1.AA	.	1.AA	.	2.a/	00.r
.	.	.	.	4a/	.
.	.	.	.	4cc\	.
!	!	!	!	!LO:TX:t=P:problem:kreska pseudotaktowa	!
.	.	.	.	4cc\	.
=51-	=51-	=51-	=51-	=51-	=51-
1BB	.	1BB	.	4b/	.
.	.	.	.	4dd\	.
.	.	.	.	8b/	.
.	.	.	.	8a/	.
.	.	.	.	8gny/	.
.	.	.	.	8f/	.
2C/	.	2C/	.	4e/	.
!	!	!	!	!LO:TX:t=P:problem:kreska pseudotaktowa	!
.	.	.	.	4g/	.
=52-	=52-	=52-	=52-	=52-	=52-
2D/	#	2D/	#	4f#X/	.
.	.	.	.	4f#/	.
2E\	.	2E\	.	4g/	.
.	.	.	.	4g/	.
!LO:TX:t=P:problem:kreska pseudotaktowa	!	!LO:TX:t=P:problem:kreska pseudotaktowa	!	!	!
2F#X\	.	2F#X\	.	4a/	.
!	!	!	!	!LO:TX:b:t=Aa	!
!	!	!	!	!LO:TX:t=P:problem:kreska pseudotaktowa	!
.	.	.	.	4f#X/	.
=53-	=53-	=53-	=53-	=53-	=53-
2G\	.	2G\	.	4d/	.
.	.	.	.	4b/	.
2A\	.	2A\	.	4cc\	.
.	.	.	.	4cc\	.
2Bny\	.	2Bny\	.	4dd\	.
!	!	!	!	!LO:TX:t=P:problem:kreska pseudotaktowa	!
.	.	.	.	4b/	.
*	*	*	*	*	*custos:ee
!	!	!	!	!	!LO:PB:g=original
=54-	=54-	=54-	=54-	=54-	=54-
!	!	!	!	!	!LO:TX:b:t=Allegro.
2c\	.	2c\	.	2g/	2.ee\
2C/	.	2C/	.	2r	.
.	.	.	.	.	4ee\
!LO:TX:t=P:problem:kreska pseudotaktowa	!	!LO:TX:t=P:problem:kreska pseudotaktowa	!	!	!
2D/	.	2D/	.	2r	4ff\
.	.	.	.	.	4ff\
=55-	=55-	=55-	=55-	=55-	=55-
1E	6	1E	6	0.r	4ee\
.	.	.	.	.	4gg\
.	.	.	.	.	8ee\
.	.	.	.	.	8dd\
.	.	.	.	.	8cc\
.	.	.	.	.	8b/
2Fny\	.	2Fny\	.	.	4a/
!	!	!	!	!	!LO:TX:t=P:problem:kreska pseudotaktowa
.	.	.	.	.	4dd\
=56-	=56-	=56-	=56-	=56-	=56-
2G\	.	2G\	.	.	4b/
.	.	.	.	.	4b/
2A\	.	2A\	.	.	4cc\
.	.	.	.	.	4cc\
2B\	.	2B\	.	.	4dd\
!	!	!	!	!	!LO:TX:t=P:problem:kreska pseudotaktowa
.	.	.	.	.	4b/
*	*	*	*	*custos:gg	*
!	!	!	!	!LO:PB:g=original	!
=57-	=57-	=57-	=57-	=57-	=57-
4c\	.	4c\	.	4r	4g/
*	*	*	*	*	*custos:ee
!	!	!	!	!	!LO:LB:g=original
4C/	.	4C/	.	4gg\	4ee\
2D/	.	2D/	.	8ff\	4ff\
.	.	.	.	8ee\	.
.	.	.	.	8dd\	4ff\
.	.	.	.	8cc\	.
!LO:TX:t=P:problem:kreska pseudotaktowa	!	!LO:TX:t=P:problem:kreska pseudotaktowa	!	!	!
2E\	5:6	2E\	5:6	4b/	4gg\
!	!	!	!	!LO:TX:t=P:problem:kreska pseudotaktowa	!LO:TX:t=P:problem:kreska pseudotaktowa
.	.	.	.	4cc\	4ee\
=58-	=58-	=58-	=58-	=58-	=58-
4F\	.	4F\	.	4a/	4cc\
4A\	.	4A\	.	4cc\	4a/
2B\	6	2B\	6	4dd\	8g/
.	.	.	.	.	8f/
.	.	.	.	4dd\	8e/
.	.	.	.	.	8d/
2c\	6	2c\	6	4ee\	4c/
!	!	!	!	!LO:TX:t=P:problem:kreska pseudotaktowa	!LO:TX:t=P:problem:kreska pseudotaktowa
.	.	.	.	4cc\	4a/
*custos:d	*	*custos:d	*	*	*
!LO:LB:g=original	!	!LO:LB:g=original	!	!	!
=59-	=59-	=59-	=59-	=59-	=59-
4d\	.	4d\	.	4a/	4f/
4D/	.	4D/	.	4dd\	4ff\
2E\	6	2E\	6	8cc\	4gg\
.	.	.	.	8b/	.
.	.	.	.	8a/	4gg\
.	.	.	.	8g/	.
!LO:TX:t=P:problem:kreska pseudotaktowa	!	!LO:TX:t=P:problem:kreska pseudotaktowa	!	!	!
2F\	.	2F\	.	4fny/	4aa\
!	!	!	!	!LO:TX:t=P:problem:kreska pseudotaktowa	!
.	.	.	.	4dd\	4ff\
*	*	*	*	*	*custos:dd
!	!	!	!	!	!LO:LB:g=original
=60-	=60-	=60-	=60-	=60-	=60-
2G\	.	2G\	.	4b/	4dd\
.	.	.	.	4b/	4dd\
2E\	.	2E\	.	8ee\	8gg\
.	.	.	.	8dd\	8ff\
.	.	.	.	8cc\	8ee\
.	.	.	.	8b/	8dd\
4F\	.	4F\	.	4a/	4cc\
!	!	!	!	!LO:TX:t=P:problem:kreska pseudotaktowa	!LO:TX:t=P:problem:kreska pseudotaktowa
4D/	.	4D/	.	4dd\	4ff\
=61-	=61-	=61-	=61-	=61-	=61-
2E\	.	2E\	.	4g/	4b/
.	.	.	.	4g/	4b/
2C/	6	2C/	6	8cc\	8ee\
.	.	.	.	8b/	8dd\
.	.	.	.	8a/	8cc\
.	.	.	.	8g/	8b/
4D/	#	4D/	#	4f#X/	4a/
!LO:TX:t=P:problem:kreska pseudotaktowa	!	!LO:TX:t=P:problem:kreska pseudotaktowa	!	!	!LO:TX:t=P:problem:kreska pseudotaktowa
4BB/	.	4BB/	.	4b/	4dd\
*	*	*	*	*custos:e	*
!	!	!	!	!LO:LB:g=original	!
=62-	=62-	=62-	=62-	=62-	=62-
2C/	.	2C/	.	4e/	4g/
.	.	.	.	4e/	4g/
4AA/	6 #	4AA/	6 #	4f#X/	4a/
4GG/	.	4GG/	.	4g/	4b/
!	!	!	!	!	!LO:TX:t=P:problem:kreska pseudotaktowa
2D/	4#r	2D/	4#r	4.g/	2a/
!	!	!	!	!LO:TX:t=P:problem:kreska pseudotaktowa	!
.	.	.	.	8f#X/	.
=63-	=63-	=63-	=63-	=63-	=63-
2GG/	.	2GG/	.	4g/	2g/
.	.	.	.	4b/	.
2AA/	.	2AA/	.	4cc\	2r
.	.	.	.	4cc\	.
!LO:TX:t=P:problem:kreska pseudotaktowa	!	!LO:TX:t=P:problem:kreska pseudotaktowa	!	!	!
2BB/	.	2BB/	.	4dd\	2r
!	!	!	!	!LO:TX:t=P:problem:kreska pseudotaktowa	!
.	.	.	.	4b/	.
=64-	=64-	=64-	=64-	=64-	=64-
2C/	.	2C/	.	2g/	4r
.	.	.	.	.	4ee\
2D/	.	2D/	.	2r	4ff\
.	.	.	.	.	4ff\
2E\	.	2E\	.	2r	4gg\
!	!	!	!	!	!LO:TX:t=P:problem:kreska pseudotaktowa
.	.	.	.	.	4ee\
=65-	=65-	=65-	=65-	=65-	=65-
2F\	.	2F\	.	4r	2cc\
.	.	.	.	4gg\	.
2D/	7	2D/	7	8ff\	2r
.	.	.	.	8ee\	.
.	.	.	.	8dd\	.
.	.	.	.	8cc\	.
!LO:TX:t=P:problem:kreska pseudotaktowa	!	!LO:TX:t=P:problem:kreska pseudotaktowa	!	!	!
2G\	.	2G\	.	4b/	2r
!	!	!	!	!LO:TX:t=P:problem:kreska pseudotaktowa	!
.	.	.	.	4dd\	.
=66-	=66-	=66-	=66-	=66-	=66-
2C/	.	2C/	.	2cc\	4r
.	.	.	.	.	4ee\
2D/	6	2D/	6	2r	8dd\
.	.	.	.	.	8cc\
.	.	.	.	.	8b/
.	.	.	.	.	8a/
2E\	#	2E\	#	2r	4g#X/
.	.	.	.	.	4b/
*	*	*	*	*	*custos:a
!	!	!	!	!	!LO:LB:g=original
=67-	=67-	=67-	=67-	=67-	=67-
!LO:TX:t=P:problem:kreska pseudotaktowa	!	!LO:TX:t=P:problem:kreska pseudotaktowa	!	!	!
1.AA	.	1.AA	.	1.r	4a/
.	.	.	.	.	2a/
.	.	.	.	.	4a/
.	.	.	.	.	4cc\
!	!	!	!	!	!LO:TX:t=P:problem:kreska pseudotaktowa
.	.	.	.	.	4cc\
=68-	=68-	=68-	=68-	=68-	=68-
1BB	.	1BB	.	2.dd\	4b/
.	.	.	.	.	4dd\
.	.	.	.	.	8b/
.	.	.	.	.	8a/
.	.	.	.	4dd\	8gny/
.	.	.	.	.	8f/
2C/	.	2C/	.	4ee\	4e/
!	!	!	!	!LO:TX:t=P:problem:kreska pseudotaktowa	!LO:TX:t=P:problem:kreska pseudotaktowa
.	.	.	.	4ee\	4g/
=69-	=69-	=69-	=69-	=69-	=69-
2D/	#	2D/	#	4dd\	4f#X/
.	.	.	.	4dd\	4f#/
2E\	6	2E\	6	8cc\	4g/
.	.	.	.	8b/	.
.	.	.	.	8a/	4g/
.	.	.	.	8g/	.
!LO:TX:t=P:problem:kreska pseudotaktowa	!	!LO:TX:t=P:problem:kreska pseudotaktowa	!	!	!
2F#X\	.	2F#X\	.	4f#X/	4a/
!	!	!	!	!	!LO:TX:t=P:problem:kreska pseudotaktowa
.	.	.	.	4dd\	4f#X/
*custos:G	*	*custos:G	*	*custos:b	*
!LO:LB:g=original	!	!LO:LB:g=original	!	!LO:LB:g=original	!
=70-	=70-	=70-	=70-	=70-	=70-
2G\	.	2G\	.	4b/	4d/
.	.	.	.	4bb\	4b/
2A\	.	2A\	.	8aa\	4cc\
.	.	.	.	8gg\	.
.	.	.	.	8ff\	4cc\
.	.	.	.	8ee\	.
2B\	6	2B\	6	4dd\	4dd\
!	!	!	!	!LO:TX:t=P:problem:kreska pseudotaktowa	!LO:TX:t=P:problem:kreska pseudotaktowa
.	.	.	.	4gg\	4b/
=71-	=71-	=71-	=71-	=71-	=71-
2c\	.	2c\	.	4ee\	4g/
.	.	.	.	4ee\	4gg\
2A\	6 #	2A\	6 #	4ff#X\	4aa\
.	.	.	.	4ff#\	4aa\
!LO:TX:t=P:problem:kreska pseudotaktowa	!	!LO:TX:t=P:problem:kreska pseudotaktowa	!	!	!
2G\	.	2G\	.	4gg\	4bb\
!	!	!	!	!LO:TX:t=P:problem:kreska pseudotaktowa	!LO:TX:t=P:problem:kreska pseudotaktowa
.	.	.	.	4b/	4gg\
=72-	=72-	=72-	=72-	=72-	=72-
1C	5:6	1C	5:6	4cc\	4ee\
.	.	.	.	4gg\	4ee\
.	.	.	.	8ee\	8cc\
.	.	.	.	8dd\	8b/
.	.	.	.	8cc\	8a/
.	.	.	.	8b/	8g/
2D/	#	2D/	#	4a/	4f#X/
!	!	!	!	!LO:TX:t=P:problem:kreska pseudotaktowa	!
.	.	.	.	4dd\	4f#/
*	*	*	*	*	*custos:g
!	!	!	!	!	!LO:LB:g=original
=73-	=73-	=73-	=73-	=73-	=73-
2GG/	.	2GG/	.	4b/	2g/
.	.	.	.	4b/	.
2AA/	.	2AA/	.	4cc\	2r
.	.	.	.	4cc\	.
!LO:TX:t=P:problem:kreska pseudotaktowa	!	!LO:TX:t=P:problem:kreska pseudotaktowa	!	!	!LO:TX:t=P:problem:kreska pseudotaktowa
2BB/	.	2BB/	.	4dd\	2r
!	!	!	!	!LO:TX:t=P:problem:kreska pseudotaktowa	!
.	.	.	.	4b/	.
=74-	=74-	=74-	=74-	=74-	=74-
2C/	.	2C/	.	4g/	4r
.	.	.	.	4gg\	4ee\
2D/	.	2D/	.	8ffny\	4ff\
.	.	.	.	8ee\	.
.	.	.	.	8dd\	4ff\
.	.	.	.	8cc\	.
2E\	.	2E\	.	4b/	4gg\
!	!	!	!	!LO:TX:t=P:problem:kreska pseudotaktowa	!
!	!	!	!	!	!LO:TX:t=P:problem:kreska pseudotaktowa
.	.	.	.	4cc\	4ee\
*	*	*	*	*custos:a	*
!	!	!	!	!LO:LB:g=original	!
=75-	=75-	=75-	=75-	=75-	=75-
2Fny\	.	2Fny\	.	4a/	4cc\
.	.	.	.	4a/	4cc\
2D/	6	2D/	6	4b/	4dd\
.	.	.	.	4b/	4dd\
!LO:TX:t=P:problem:kreska pseudotaktowa	!	!LO:TX:t=P:problem:kreska pseudotaktowa	!	!	!
2C/	.	2C/	.	4cc\	4ee\
!	!	!	!	!LO:TX:t=P:problem:kreska pseudotaktowa	!LO:TX:t=P:problem:kreska pseudotaktowa
.	.	.	.	4a/	4cc\
=76-	=76-	=76-	=76-	=76-	=76-
2G\	.	2G\	.	4g/	4b/
.	.	.	.	4b/	4gg\
2A\	6	2A\	6	4cc\	8ff\
.	.	.	.	.	8ee\
.	.	.	.	4cc\	8dd\
.	.	.	.	.	8cc\
2B\	6	2B\	6	4dd\	4b/
!	!	!	!	!LO:TX:t=P:problem:kreska pseudotaktowa	!LO:TX:t=P:problem:kreska pseudotaktowa
.	.	.	.	4b/	4dd\
=77-	=77-	=77-	=77-	=77-	=77-
2c\	.	2c\	.	4e/	4cc\
.	.	.	.	4ee\	4gg\
2C/	6	2C/	6	8cc\	8ee\
.	.	.	.	8b/	8dd\
.	.	.	.	8a/	8cc\
.	.	.	.	8g/	8b/
!LO:TX:t=P:problem:kreska pseudotaktowa	!	!LO:TX:t=P:problem:kreska pseudotaktowa	!	!	!
2D/	.	2D/	.	4f#X/	4a/
!	!	!	!	!LO:TX:t=P:problem:kreska pseudotaktowa	!LO:TX:t=P:problem:kreska pseudotaktowa
.	.	.	.	4f#/	4dd\
=78-	=78-	=78-	=78-	=78-	=78-
2G\	.	2G\	.	4g/	4b/
.	.	.	.	4b/	4dd\
2E\	6	2E\	6	4cc\	4ee\
.	.	.	.	4cc\	4ee\
4D/	.	4D/	.	4dd\	4ff\
!	!	!	!	!LO:TX:t=P:problem:kreska pseudotaktowa	!
4G\	.	4G\	.	4b/	4dd\
*	*	*	*	*	*custos:cc
!	!	!	!	!	!LO:LB:g=original
=79-	=79-	=79-	=79-	=79-	=79-
4A\	.	4A\	.	4a/	2cc\
4AA/	.	4AA/	.	4aa\	.
2BB/	.	2BB/	.	8gg\	2r
.	.	.	.	8ff\	.
.	.	.	.	8ee\	.
.	.	.	.	8dd\	.
2C/	.	2C/	.	4cc\	2r
.	.	.	.	4ee\	.
*	*	*	*	*custos:a	*
!	!	!	!	!LO:LB:g=original	!
=80-	=80-	=80-	=80-	=80-	=80-
1.D	5:6	1.D	5:6	1a	4r
.	.	.	.	.	4gg\
.	.	.	.	.	8ff\
.	.	.	.	.	8ee\
.	.	.	.	.	8dd\
.	.	.	.	.	8cc\
!	!	!	!	!LO:TX:t=P:problem:kreska pseudotaktowa	!
.	.	.	.	2r	4b/
.	.	.	.	.	4dd\
=81-	=81-	=81-	=81-	=81-	=81-
1E	#	1E	#	4r	1g#X
.	.	.	.	4bb\	.
.	.	.	.	8ee\	.
.	.	.	.	8dd\	.
.	.	.	.	8cc\	.
.	.	.	.	8b/	.
2F\	6	2F\	6	4a/	2a/
.	.	.	.	4dd\	.
=82-	=82-	=82-	=82-	=82-	=82-
1.E	6:5 4#r	1.E	6:5 4#r	2cc\	1a
.	.	.	.	2.b/	.
.	.	.	.	.	2g#X/
.	.	.	.	4cc\	.
=83-	=83-	=83-	=83-	=83-	=83-
1.AA	.	1.AA	.	1.a	1.a
*custos:AA	*	*custos:AA	*	*	*
!LO:LB:g=original	!	!LO:LB:g=original	!	!	!
=84-	=84-	=84-	=84-	=84-	=84-
*M2/2	*	*M2/2	*	*M2/2	*M2/2
*met(C|)	*	*met(C|)	*	*met(C|)	*met(C|)
!LO:TX:b:t=adagio.	!	!LO:TX:b:t=adagio.	!	!LO:TX:b:t=adagio.	!
4AA/	.	4AA/	.	8r	2r
.	.	.	.	8cc\	.
4BB/	.	4BB/	.	8dd\	.
.	.	.	.	8dd\	.
4C/	.	4C/	.	8ee\	8r
.	.	.	.	8cc\	8ee\
4E\	.	4E\	.	4b/	8gg\
.	.	.	.	.	8gg\
=85-	=85-	=85-	=85-	=85-	=85-
4F\	.	4F\	.	8r	8aa\
.	.	.	.	8a/	8ff\
4A\	.	4A\	.	8cc\	4ee\
.	.	.	.	8cc\	.
8D/	.	8D/	.	8dd\	8r
8E\	.	8E\	.	8b/	8ee\
4AA/	.	4AA/	.	4a/	16cc\
.	.	.	.	.	16b/
.	.	.	.	.	16a/
.	.	.	.	.	16gny/
=86-	=86-	=86-	=86-	=86-	=86-
2D/	5:6	2D/	5:6	8r	8fny/
.	.	.	.	8gg\	8ff\
.	.	.	.	16ff\	16dd\
.	.	.	.	16ee\	16cc\
.	.	.	.	16dd\	16b/
.	.	.	.	16cc\	16a/
*	*	*	*	*	*custos:g
!	!	!	!	!	!LO:LB:g=original
[<2E\	5:6 4#	[<2E\	5:6 4#	8.b/	8.g/
.	.	.	.	16a/	16f#X/
.	.	.	.	8.cc\	8.a/
!	!	!	!	!	!LO:TX:t=P:problem:kreska pseudotaktowa
.	.	.	.	16b/	16g#X/
*	*	*	*	*custos:g	*
!	!	!	!	!LO:LB:g=original	!
=87-	=87-	=87-	=87-	=87-	=87-
1E]	5:6:5 #:4#r	1E]	5:6:5 #:4#r	8.g#X/	8.b/
.	.	.	.	16f#X/	16a/
.	.	.	.	2a/	8.cc\
.	.	.	.	.	16b/
.	.	.	.	.	2b/
.	.	.	.	4g#X/	.
=88-	=88-	=88-	=88-	=88-	=88-
0AA;<	.	0AA;<	.	0a;	0a;
==	==	==	==	==	==
*-	*-	*-	*-	*-	*-
!!!system-decoration: [(s1,s2)]s3,s4
!!!RDF**kern: > = above
!!!RDF**kern: < = below
!!!ENC: Andrzej Gręziak
!!!END: 2022-11-08
!!!ENC: Natalia Wrzos
!!!END: 2022-11-28
!!!YEC: Copyright 2022 Narodowy Instytut Fryderyka Chopina (https://polishscores.org)
!!!YEM: License CC-BY-4.0 (https://creativecommons.org/licenses/by/4.0)
